fs/mail_copy_24_regular.svg

<svg viewBox="0 0 24 24" fill="none" xmlns="http://www.w3.org/2000/svg" height="1em" width="1em">
  <path d="M2.99946 7.51126C2.09768 8.08885 1.5 9.09963 1.5 10.25V16.25C1.5 19.1495 3.85051 21.5 6.75 21.5H15.75C16.9004 21.5 17.9112 20.9023 18.4887 20.0005L6.75 20C4.67893 20 3 18.3211 3 16.25L2.99946 7.51126ZM18.75 4H7.25C5.51697 4 4.10075 5.35645 4.00514 7.06558L4 7.25V15.75C4 17.483 5.35645 18.8992 7.06558 18.9949L7.25 19H18.75C20.483 19 21.8992 17.6435 21.9949 15.9344L22 15.75V7.25C22 5.51697 20.6435 4.10075 18.9344 4.00514L18.75 4ZM5.5 8.899L12.6507 12.6637C12.8381 12.7623 13.0569 12.7764 13.2532 12.706L13.3493 12.6637L20.5 8.9V15.75C20.5 16.6682 19.7929 17.4212 18.8935 17.4942L18.75 17.5H7.25C6.33183 17.5 5.57881 16.7929 5.5058 15.8935L5.5 15.75V8.899ZM7.25 5.5H18.75C19.6682 5.5 20.4212 6.20711 20.4942 7.10647L20.498 7.206L13 11.1525L5.50057 7.20483C5.52453 6.25921 6.2986 5.5 7.25 5.5Z" fill="#212121"/>
</svg>

<svg viewBox="0 0 24 24" fill="none" xmlns="http://www.w3.org/2000/svg" height="1em" width="1em">
  <path d="M3 7.511a3.247 3.247 0 0 0-1.5 2.739v6c0 2.9 2.35 5.25 5.25 5.25h9c1.15 0 2.161-.598 2.739-1.5H6.75A3.75 3.75 0 0 1 3 16.25V7.511ZM18.75 4H7.25a3.25 3.25 0 0 0-3.245 3.066L4 7.25v8.5a3.25 3.25 0 0 0 3.066 3.245L7.25 19h11.5a3.25 3.25 0 0 0 3.245-3.066L22 15.75v-8.5a3.25 3.25 0 0 0-3.066-3.245L18.75 4ZM5.5 8.899l7.15 3.765a.75.75 0 0 0 .603.042l.096-.042L20.5 8.9v6.85a1.75 1.75 0 0 1-1.607 1.744l-.143.006H7.25a1.75 1.75 0 0 1-1.744-1.607L5.5 15.75V8.899ZM7.25 5.5h11.5a1.75 1.75 0 0 1 1.744 1.606l.004.1L13 11.152 5.5 7.205A1.75 1.75 0 0 1 7.25 5.5Z" fill="#212121"/>
</svg>
